X: 0
T: The Old Bush
C: Trad
M: 4/4
L: 1/8
K: Dmix
|:"Am"A2 GA c ~A3 | "D"d^cde fde=c | "Am"A2 GA c~A3 | "D"dfed ^cAd^c |
"Am"A2 GA c~A3 | "D"d^cde f2 fg | af ge fde^c |1 dfed ^cA d^c :|2 dfed ^cA A2 ||
|:"Em"eg ~g2 ed^cd | efge c2 c2 | efge afge | "D"dfed ^cA A2 |
"Em"eg ~g2 ag ~g2 | fgfe defg | "D"af ge fde^c | dfed ^cA A2 :|